img/icons/arrow_right_white.svg

<svg xmlns="http://www.w3.org/2000/svg"
 xmlns:xlink="http://www.w3.org/1999/xlink"
 width="22px" height="11px"  viewBox="0 0 22 11">
<path fill-rule="evenodd"  fill="#ffffff"
 d="M1.0,5.999756 C1.0,5.999756 1.0,5.0 1.0,5.0 C1.0,5.0 19.999939,5.0 19.999939,5.0 C19.999939,5.0 19.999939,5.999756 19.999939,5.999756 C19.999939,5.999756 1.0,5.999756 1.0,5.999756 ZM20.353577,5.64624 C20.353577,5.64624 19.646484,6.3532715 19.646484,6.3532715 C19.646484,6.3532715 15.646423,2.3535156 15.646423,2.3535156 C15.646423,2.3535156 16.353516,1.6464844 16.353516,1.6464844 C16.353516,1.6464844 20.353577,5.64624 20.353577,5.64624 ZM15.646423,8.646484 C15.646423,8.646484 16.353516,9.353516 16.353516,9.353516 C16.353516,9.353516 20.353577,5.3535156 20.353577,5.3535156 C20.353577,5.3535156 19.646484,4.64624 19.646484,4.64624 C19.646484,4.64624 15.646423,8.646484 15.646423,8.646484 Z"/>
</svg>

<svg xmlns="http://www.w3.org/2000/svg" width="22" height="11"><path fill-rule="evenodd" fill="#fff" d="M1 6V5h19v1H1zm19.354-.354l-.708.707-4-4 .708-.707 4 4zm-4.708 3l.708.708 4-4-.708-.708-4 4z"/></svg>
